packages/axiom-materials/src/icon_svgs/monitor.svg

<?xml version="1.0" encoding="UTF-8"?>
<svg width="16px" height="16px" viewBox="0 0 16 16" version="1.1" xmlns="http://www.w3.org/2000/svg" xmlns:xlink="http://www.w3.org/1999/xlink">
    <!-- Generator: sketchtool 43.2 (39069) - http://www.bohemiancoding.com/sketch -->
    <title>monitor</title>
    <desc>Created with sketchtool.</desc>
    <defs></defs>
    <g id="Page-1" stroke="none" stroke-width="1" fill="none" fill-rule="evenodd">
        <g id="monitor" fill="#000000">
            <path d="M12.25,10.1368 C12.25,10.1988 12.199,10.2498 12.137,10.2498 L3.863,10.2498 C3.801,10.2498 3.75,10.1988 3.75,10.1368 L3.75,4.8628 C3.75,4.8008 3.801,4.7498 3.863,4.7498 L12.137,4.7498 C12.199,4.7498 12.25,4.8008 12.25,4.8628 L12.25,10.1368 Z M12.137,2.9998 L3.863,2.9998 C2.834,2.9998 2,3.8338 2,4.8628 L2,10.1368 C2,11.1658 2.834,11.9998 3.863,11.9998 L6,11.9998 L6,12.9998 L10,12.9998 L10,11.9998 L12.137,11.9998 C13.166,11.9998 14,11.1658 14,10.1368 L14,4.8628 C14,3.8338 13.166,2.9998 12.137,2.9998 L12.137,2.9998 Z" id="Mask"></path>
        </g>
    </g>
</svg>

<svg height="16" viewBox="0 0 16 16" width="16" xmlns="http://www.w3.org/2000/svg"><path d="m12.25 10.1368c0 .062-.051.113-.113.113h-8.274c-.062 0-.113-.051-.113-.113v-5.274c0-.062.051-.113.113-.113h8.274c.062 0 .113.051.113.113zm-.113-7.137h-8.274c-1.029 0-1.863.834-1.863 1.863v5.274c0 1.029.834 1.863 1.863 1.863h2.137v1h4v-1h2.137c1.029 0 1.863-.834 1.863-1.863v-5.274c0-1.029-.834-1.863-1.863-1.863z" fill-rule="evenodd"/></svg>
